X:1
T:Partition sans titre
C:Compositeur / Arrangeur
L:1/8
M:4/4
I:linebreak $
K:A
V:1 treble nm="Violon" snm="Vln."
V:1
"A" c3 c cfec |"E" BABc dcBA |"A" c3 c cfec |"E" BABc"A" AE E2 |"A" c3 c cfec |"E" BABc dcBA | %6
"A" c3 c cfec |"E" BABc"A" A2 A2 ::"D" f3 f fgaf |"A" e2 (3cBA e2 (3cBA |"E" B2 GB EBGB | %11
"A" ABcd eA A2 |"D" f3 f fgaf |"A" e2 (3cBA e2 (3cBA |"D" fgaf"A" ecAa | afec AE E2 :| %16
